; generated by PrusaSlicer 2.9.1 on 2025-03-22 at 21:46:08 UTC

; external perimeters extrusion width = 0.45mm
; perimeters extrusion width = 0.45mm
; infill extrusion width = 0.45mm
; solid infill extrusion width = 0.45mm
; top infill extrusion width = 0.40mm
; first layer extrusion width = 0.42mm

M73 P0 R74
M73 Q0 S77
M201 X10000 Y10000 Z400 E5000 ; sets maximum accelerations, mm/sec^2
M203 X350 Y350 Z12 E100 ; sets maximum feedrates, mm / sec
M204 P7000 R2500 T7000 ; sets acceleration (P, T) and retract acceleration (R), mm/sec^2
M205 X10.00 Y10.00 Z2.00 E10.00 ; sets the jerk limits, mm/sec
M205 S0 T0 ; sets the minimum extruding and travel feed rate, mm/sec
;TYPE:Custom
M17 ; enable steppers
M862.1 P0.4 A0 F1 ; nozzle check
M862.3 P "COREONE" ; printer model check
M862.5 P2 ; g-code level check
M862.6 P"Input shaper" ; FW feature check
M115 U6.3.0+10073

M555 X92.5231 Y81.022 W65.0771 H54.0794

G90 ; use absolute coordinates
M83 ; extruder relative mode


M140 S63 ; set bed temp


M109 R170 ; wait for temp

M84 E ; turn off E motor

G28 ; home all without mesh bed level


M141 S0 ; set nominal chamber temp



G0 Z40 F10000
M104 T0 S100
M190 R63 ; wait for bed temp
M107

G29 G ; absorb heat

M109 R170 ; wait for MBL temp

M302 S160 ; lower cold extrusion limit to 160C


G1 E-2 F2400 ; retraction
M73 P0 R73


M84 E ; turn off E motor

G29 P9 X208 Y-2.5 W32 H4

;
; MBL
;
M84 E ; turn off E motor
G29 P1 ; invalidate mbl & probe print area
G29 P1 X150 Y0 W100 H20 C ; probe near purge place
G29 P3.2 ; interpolate mbl probes
G29 P3.13 ; extrapolate mbl outside probe area
G29 A ; activate mbl

; prepare for purge
M104 S205
G0 X249 Y-2.5 Z15 F4800 ; move away and ready for the purge
M109 S205

G92 E0
M569 S0 E ; set spreadcycle mode for extruder

;
; Extrude purge line
;
G92 E0 ; reset extruder position
G1 E2 F2400 ; deretraction after the initial one
G0 E5 X235 Z0.2 F500 ; purge
G0 X225 E4 F500 ; purge
G0 X215 E4 F650 ; purge
G0 X205 E4 F800 ; purge
G0 X202 Z0.05 F8000 ; wipe, move close to the bed
G0 X199 Z0.2 F8000 ; wipe, move quickly away from the bed

G92 E0
M221 S100 ; set flow to 100%
G21 ; set units to millimeters
G90 ; use absolute coordinates
M83 ; use relative distances for extrusion
; Filament gcode
M107
;LAYER_CHANGE
;Z:0.35
;HEIGHT:0.35
G1 E-.7 F2700
G1 Z1.85 F7800
G1 X123.051 Y113.449
G1 Z.35
G1 E.7 F1500
;TYPE:Perimeter
;WIDTH:0.42
G1 F1800
G2 X122.533 Y113.735 I.223 J1.014 E.03011
G1 X122.367 Y114.034 E.01716
G1 X120.137 Y121.052 E.36956
G1 X93.653 Y112.636 E1.39462
G1 X102.069 Y86.152 E1.39462
G1 X123.997 Y93.12 E1.1547
G2 X124.877 Y92.899 I.244 J-.892 E.0476
G1 X126.8 Y90.903 E.1391
G1 X128.666 Y89.435 E.11915
G1 X130.857 Y88.164 E.12712
G1 X133.208 Y87.221 E.12712
G1 X135.513 Y86.65 E.11917
G1 X138.033 Y86.386 E.12716
G1 X140.572 Y86.49 E.12753
G1 X143.067 Y86.958 E.1274
G1 X145.319 Y87.711 E.11917
G1 X147.587 Y88.843 E.12721
G1 X149.667 Y90.289 E.12713
G1 X151.411 Y91.901 E.11919
G1 X153.016 Y93.861 E.12714
G1 X154.321 Y96.03 E.12704
G1 X155.301 Y98.367 E.12718
G1 X155.911 Y100.662 E.11918
G1 X156.214 Y103.177 E.12713
G1 X156.151 Y105.719 E.12761
G1 X155.692 Y108.34 E.13354
G1 X154.974 Y110.617 E.11982
G2 X155.204 Y111.503 I.896 J.24 E.04804
G2 X155.796 Y111.738 I.662 J-.802 E.03249
G1 X156.7 Y111.738 E.04537
G1 X156.7 Y112.642 E.04537
G1 X156.7 Y134.202 E1.08201
G1 X140.555 Y134.202 E.81025
G1 X140.555 Y122.506 E.58697
G2 X140.035 Y121.714 I-.908 J.03 E.05002
G1 X139.707 Y121.644 E.01683
G1 X136.98 Y121.587 E.13689
G1 X134.523 Y121.183 E.12496
G1 X132.013 Y120.388 E.13213
G1 X129.654 Y119.229 E.13191
G1 X127.494 Y117.73 E.13195
G1 X125.689 Y116.047 E.12385
G1 X123.901 Y113.806 E.14388
G2 X123.124 Y113.435 I-.756 J.586 E.04482
G2 X123.11 Y113.438 I.15 J1.028 E.00072
G1 X123.117 Y113.785 F7800
G1 F1800
G2 X123.081 Y113.789 I.044 J.584 E.00182
G1 X122.838 Y113.915 E.01374
G1 X122.696 Y114.139 E.01331
G1 X120.362 Y121.485 E.38683
G1 X93.22 Y112.86 E1.42927
G1 X101.844 Y85.719 E1.4292
G1 X124.135 Y92.801 E1.1738
G2 X124.63 Y92.658 I.092 J-.611 E.02667
G1 X126.568 Y90.647 E.14016
G1 X128.472 Y89.149 E.12158
G1 X130.705 Y87.853 E.12957
G1 X133.102 Y86.892 E.1296
G1 X135.453 Y86.31 E.12155
G1 X138.022 Y86.041 E.12963
G1 X140.611 Y86.146 E.13004
G1 X143.154 Y86.624 E.12986
G1 X145.451 Y87.391 E.12153
G1 X147.763 Y88.545 E.12968
G1 X149.884 Y90.019 E.12962
G1 X151.662 Y91.664 E.12156
G1 X153.299 Y93.662 E.12963
G1 X154.629 Y95.874 E.12953
G1 X155.628 Y98.255 E.12958
G1 X156.25 Y100.597 E.12161
G1 X156.559 Y103.16 E.12956
G1 X156.495 Y105.752 E.13012
G1 X156.024 Y108.435 E.13671
G1 X155.303 Y110.72 E.12025
G2 X155.507 Y111.305 I.55 J.136 E.03289
G1 X155.796 Y111.393 E.01516
G1 X157.045 Y111.393 E.06268
G1 X157.045 Y112.642 E.06268
G1 X157.045 Y134.546 E1.09927
G1 X140.21 Y134.546 E.84488
G1 X140.21 Y122.506 E.60424
G2 X139.702 Y121.988 I-.542 J.025 E.03987
G1 X136.941 Y121.93 E.13859
G1 X134.443 Y121.519 E.12705
G1 X131.884 Y120.709 E.13471
G1 X129.478 Y119.527 E.13453
G1 X127.277 Y118 E.13444
G1 X125.435 Y116.282 E.12641
G1 X123.632 Y114.021 E.14513
G2 X123.177 Y113.784 I-.471 J.348 E.02665
G1 X123.173 Y114.136 F7800
;TYPE:External perimeter
G1 F1800
G2 X123.025 Y114.243 I.022 J.187 E.00957
G1 X120.586 Y121.918 E.40416
G1 X92.787 Y113.085 E1.46385
G1 X101.62 Y85.286 E1.46385
G1 X124.235 Y92.469 E1.19083
G1 X124.382 Y92.418 E.00781
G1 X126.336 Y90.39 E.14133
G1 X128.278 Y88.863 E.12398
G1 X130.554 Y87.542 E.13207
G1 X132.996 Y86.563 E.13204
G1 X135.394 Y85.969 E.12398
G1 X138.011 Y85.695 E.13205
G1 X140.65 Y85.802 E.13255
G1 X143.24 Y86.289 E.13226
G1 X145.584 Y87.072 E.12403
G1 X147.939 Y88.248 E.1321
G1 X150.1 Y89.75 E.13207
G1 X151.914 Y91.427 E.12398
G1 X153.581 Y93.463 E.13206
G1 X154.938 Y95.717 E.13204
G1 X155.956 Y98.144 E.13208
G1 X156.59 Y100.532 E.124
G1 X156.905 Y103.144 E.13204
G1 X156.839 Y105.785 E.13258
G1 X156.467 Y108.029 E.11415
G1 X156.355 Y108.531 E.02581
G1 X155.632 Y110.824 E.12066
G1 X155.654 Y110.974 E.00761
G1 X155.796 Y111.048 E.00804
G1 X157.39 Y111.048 E.08
G1 X157.39 Y112.642 E.08
G1 X157.39 Y134.891 E1.11659
G1 X139.866 Y134.891 E.87946
G1 X139.866 Y122.506 E.62155
G2 X139.696 Y122.333 I-.203 J.029 E.01303
G3 X136.902 Y122.273 I.465 J-86.744 E.14026
G1 X134.362 Y121.855 E.12919
G1 X131.755 Y121.03 E.13723
G1 X129.303 Y119.825 E.13711
G1 X127.06 Y118.269 E.137
G1 X125.182 Y116.516 E.12893
G1 X123.362 Y114.236 E.14641
G2 X123.233 Y114.138 I-.167 J.087 E.0084
G1 X122.966 Y114.437 F7800
G1 E-.7 F2700
G1 X152.33 Y93.187 Z.983 F7800
G1 Z.35
G1 E.7 F1500
;TYPE:Solid infill
;WIDTH:0.420737
G1 F1800
G2 X149.505 Y90.491 I-44.233 J43.531 E.19643
G1 X148.326 Y89.672 E.0722
G1 X153.014 Y94.359 E.3334
G1 X153.752 Y95.587 E.07205
G1 X147.009 Y88.843 E.47963
G1 X146.033 Y88.356 E.05486
G1 X154.281 Y96.605 E.58668
G1 X154.635 Y97.447 E.04594
G1 X145.097 Y87.909 E.67839
G1 X144.363 Y87.664 E.03892
G1 X154.988 Y98.289 E.75571
G3 X155.198 Y98.988 I-3.828 J1.534 E.03676
G1 X143.63 Y87.419 E.82281
G1 X142.915 Y87.193 E.03771
G1 X155.375 Y99.654 E.88626
G1 X155.552 Y100.319 E.03461
G1 X142.313 Y87.08 E.94163
G1 X141.711 Y86.967 E.03081
G1 X155.684 Y100.94 E.99383
G1 X155.751 Y101.495 E.02812
G1 X141.109 Y86.854 E1.04138
G1 X140.513 Y86.746 E.03046
G1 X155.818 Y102.051 E1.08857
G1 X155.885 Y102.607 E.02817
G1 X140.003 Y86.725 E1.12961
G1 X139.494 Y86.705 E.02562
G1 X155.952 Y103.163 E1.17058
G1 X155.944 Y103.643 E.02414
G1 X138.984 Y86.684 E1.20625
G1 X138.475 Y86.663 E.02562
G1 X155.932 Y104.12 E1.24163
G1 X155.92 Y104.597 E.024
M73 P1 R73
G1 X137.975 Y86.653 E1.27631
G1 X137.533 Y86.699 E.02235
G1 X155.908 Y105.074 E1.30693
G1 X155.896 Y105.551 E.024
M73 Q1 S77
G1 X137.09 Y86.745 E1.33758
G1 X136.648 Y86.791 E.02235
G1 X155.844 Y105.988 E1.36535
G1 X155.774 Y106.407 E.02136
G1 X136.205 Y86.838 E1.39185
G1 X135.763 Y86.884 E.02235
G1 X155.705 Y106.826 E1.41838
G1 X155.635 Y107.246 E.02141
M73 Q1 S76
G1 X135.347 Y86.958 E1.44299
G1 X134.956 Y87.055 E.02026
G1 X155.566 Y107.665 E1.46589
G1 X155.49 Y108.078 E.02112
G1 X134.564 Y87.152 E1.48837
G1 X134.172 Y87.249 E.02031
G1 X155.374 Y108.451 E1.508
G1 X155.259 Y108.824 E.01963
G1 X133.78 Y87.346 E1.52766
G1 X133.389 Y87.443 E.02026
G1 X155.143 Y109.197 E1.54726
G1 X155.028 Y109.571 E.01968
G1 X133.029 Y87.572 E1.56468
G1 X132.68 Y87.711 E.01889
G1 X154.912 Y109.944 E1.58129
G1 X154.796 Y110.317 E.01965
G1 X132.331 Y87.851 E1.59786
G1 X131.982 Y87.991 E.01891
G1 X154.839 Y110.848 E1.62571
G1 X155.832 Y111.842 F7800
G1 F1800
G1 X156.442 Y112.451 E.04335
G1 X156.442 Y112.94 E.02459
G1 X131.633 Y88.131 E1.76454
G1 X131.284 Y88.271 E.01891
G1 X156.442 Y113.429 E1.78937
G1 X156.442 Y113.917 E.02454
M73 P1 R72
G1 X130.939 Y88.415 E1.81387
G1 X130.63 Y88.595 E.01799
G1 X156.442 Y114.406 E1.83585
G1 X156.442 Y114.895 E.02459
G1 X130.321 Y88.774 E1.85786
G1 X130.011 Y88.954 E.01803
G1 X156.442 Y115.384 E1.87987
G1 X156.442 Y115.873 E.02459
G1 X129.702 Y89.133 E1.90189
G1 X129.393 Y89.313 E.01799
G1 X156.442 Y116.361 E1.92383
G1 X156.442 Y116.85 E.02459
G1 X129.084 Y89.492 E1.94584
G1 X128.779 Y89.676 E.01791
G1 X156.442 Y117.339 E1.96754
G1 X156.442 Y117.828 E.02459
G1 X128.505 Y89.891 E1.98702
G1 X128.231 Y90.106 E.01752
G1 X156.442 Y118.317 E2.00651
G1 X156.442 Y118.805 E.02454
G1 X127.958 Y90.321 E2.02593
G1 X127.684 Y90.537 E.01755
G1 X156.442 Y119.294 E2.04538
G1 X156.442 Y119.783 E.02459
G1 X127.411 Y90.752 E2.06484
G1 X127.137 Y90.967 E.01752
G1 X156.442 Y120.272 E2.08432
G1 X156.442 Y120.76 E.02454
G1 X126.877 Y91.196 E2.10278
G1 X126.637 Y91.444 E.01736
G1 X156.442 Y121.249 E2.11989
G1 X156.442 Y121.738 E.02459
G1 X126.396 Y91.693 E2.13699
G1 X126.156 Y91.941 E.01736
G1 X156.442 Y122.227 E2.1541
G1 X156.442 Y122.716 E.02459
G1 X125.916 Y92.189 E2.1712
G1 X125.675 Y92.438 E.01743
G1 X156.442 Y123.204 E2.18827
G1 X156.442 Y123.693 E.02459
M73 P2 R72
G1 X125.435 Y92.686 E2.20538
G1 X125.194 Y92.935 E.01743
G1 X156.442 Y124.182 E2.22248
G1 X156.442 Y124.671 E.02459
M73 Q2 S76
G1 X124.948 Y93.177 E2.24002
G3 X124.63 Y93.348 I-.653 J-.832 E.01825
G1 X156.442 Y125.16 E2.26263
G1 X156.442 Y125.648 E.02454
G1 X124.211 Y93.418 E2.2924
G3 X123.556 Y93.251 I.417 J-3.014 E.03407
G1 X156.442 Y126.137 E2.33902
G1 X156.442 Y126.626 E.02459
G1 X122.839 Y93.023 E2.39002
G1 X122.123 Y92.796 E.03778
G1 X156.442 Y127.115 E2.44095
G1 X156.442 Y127.604 E.02459
G1 X121.406 Y92.568 E2.49194
G1 X120.69 Y92.34 E.03779
G1 X156.442 Y128.092 E2.54287
G1 X156.442 Y128.581 E.02459
G1 X119.973 Y92.113 E2.59383
G1 X119.257 Y91.885 E.03779
G1 X156.442 Y129.07 E2.64479
G1 X156.442 Y129.559 E.02459
G1 X118.54 Y91.657 E2.69579
G1 X117.824 Y91.43 E.03778
M73 Q2 S75
G1 X156.442 Y130.047 E2.74668
G1 X156.442 Y130.536 E.02459
G1 X117.108 Y91.202 E2.79764
G1 X116.391 Y90.974 E.03784
G1 X156.442 Y131.025 E2.84864
G1 X156.442 Y131.514 E.02459
G1 X115.675 Y90.747 E2.89956
G1 X114.958 Y90.519 E.03784
G1 X156.442 Y132.003 E2.95056
G1 X156.442 Y132.491 E.02454
G1 X114.242 Y90.291 E3.00148
G1 X113.525 Y90.064 E.03782
M73 P2 R71
G1 X156.442 Y132.98 E3.05244
G1 X156.442 Y133.469 E.02459
G1 X112.809 Y89.836 E3.10341
G1 X112.092 Y89.609 E.03782
G1 X156.427 Y133.943 E3.1533
G1 X155.938 Y133.943 E.02459
G1 X111.376 Y89.381 E3.16948
G1 X110.66 Y89.153 E.03779
G1 X155.449 Y133.943 E3.18566
G1 X154.961 Y133.943 E.02454
G1 X109.943 Y88.926 E3.20188
G1 X109.227 Y88.698 E.03779
M73 P3 R71
G1 X154.472 Y133.943 E3.21806
G1 X153.983 Y133.943 E.02459
G1 X108.51 Y88.47 E3.23428
G1 X107.794 Y88.243 E.03778
M73 Q3 S75
G1 X153.494 Y133.943 E3.25042
G1 X153.005 Y133.943 E.02459
G1 X107.077 Y88.015 E3.26664
G1 X106.361 Y87.787 E.03779
G1 X152.517 Y133.943 E3.28285
G1 X152.028 Y133.943 E.02459
G1 X140.814 Y122.729 E.7976
G1 X140.814 Y123.218 E.02459
G1 X151.539 Y133.943 E.76282
G1 X151.05 Y133.943 E.02459
G1 X140.814 Y123.707 E.72804
G1 X140.814 Y124.196 E.02459
G1 X150.561 Y133.943 E.69326
G1 X150.073 Y133.943 E.02454
G1 X140.814 Y124.684 E.65855
G1 X140.814 Y125.173 E.02459
G1 X149.584 Y133.943 E.62377
G1 X149.095 Y133.943 E.02459
G1 X140.814 Y125.662 E.58899
G1 X140.814 Y126.151 E.02459
G1 X148.606 Y133.943 E.55421
G1 X148.117 Y133.943 E.02459
G1 X140.814 Y126.639 E.51946
G1 X140.814 Y127.128 E.02459
G1 X147.629 Y133.943 E.48472
G1 X147.14 Y133.943 E.02459
G1 X140.814 Y127.617 E.44994
G1 X140.814 Y128.106 E.02459
G1 X146.651 Y133.943 E.41516
G1 X146.162 Y133.943 E.02459
G1 X140.814 Y128.595 E.38038
G1 X140.814 Y129.083 E.02454
G1 X145.674 Y133.943 E.34567
G1 X145.185 Y133.943 E.02459
G1 X140.814 Y129.572 E.31089
G1 X140.814 Y130.061 E.02459
G1 X144.696 Y133.943 E.27611
G1 X144.207 Y133.943 E.02459
G1 X140.814 Y130.55 E.24133
G1 X140.814 Y131.039 E.02459
G1 X143.718 Y133.943 E.20655
G1 X143.23 Y133.943 E.02454
G1 X140.814 Y131.527 E.17184
G1 X140.814 Y132.016 E.02459
G1 X142.741 Y133.943 E.13706
G1 X142.252 Y133.943 E.02459
G1 X140.814 Y132.505 E.10228
G1 X140.814 Y132.994 E.02459
G1 X141.763 Y133.943 E.0675
G1 X141.274 Y133.943 E.02459
G1 X140.659 Y133.327 E.04378
G1 E-.7 F2700
G1 X139.628 Y121.543 Z.556 F7800
G1 Z.35
G1 E.7 F1500
G1 F1800
G1 X105.645 Y87.56 E2.41705
G1 X104.928 Y87.332 E.03784
G1 X138.969 Y121.373 E2.42117
G1 X138.469 Y121.362 E.02515
G1 X104.212 Y87.104 E2.43657
G1 X103.495 Y86.877 E.03782
G1 X137.969 Y121.351 E2.45197
G1 X137.469 Y121.34 E.02515
G1 X102.779 Y86.649 E2.46737
G1 X102.237 Y86.477 E.0286
G1 X102.208 Y86.567 E.00476
G1 X136.963 Y121.322 E2.47196
G1 X136.378 Y121.226 E.02981
G1 X102.09 Y86.938 E2.43874
G1 X101.972 Y87.309 E.01958
G1 X135.793 Y121.13 E2.40553
G1 X135.208 Y121.033 E.02982
G1 X101.854 Y87.68 E2.37227
G1 X101.737 Y88.051 E.01956
G1 X134.623 Y120.937 E2.33902
G1 X133.916 Y120.719 E.03721
M73 Q3 S74
G1 X101.619 Y88.422 E2.29713
G1 X101.501 Y88.793 E.01958
G1 X133.201 Y120.493 E2.25467
G1 X132.486 Y120.266 E.03773
G1 X101.383 Y89.164 E2.21217
G1 X101.265 Y89.535 E.01958
G1 X131.654 Y119.923 E2.16139
G1 X130.693 Y119.451 E.05385
G1 X101.147 Y89.905 E2.10146
G1 X101.029 Y90.276 E.01958
G1 X129.697 Y118.944 E2.03902
G1 X128.101 Y117.837 E.09769
M73 P4 R71
G1 X100.912 Y90.647 E1.93386
G1 X100.794 Y91.018 E.01958
G1 X122.972 Y113.197 E1.57745
G2 X122.621 Y113.335 I.214 J1.058 E.01907
G1 X100.676 Y91.389 E1.56088
G1 X100.558 Y91.76 E.01958
G1 X122.352 Y113.554 E1.5501
G2 X122.16 Y113.851 I.892 J.788 E.01785
M73 P4 R70
G1 X100.44 Y92.131 E1.54484
G1 X100.322 Y92.502 E.01958
G1 X122.041 Y114.221 E1.54477
G1 X121.923 Y114.592 E.01958
G1 X100.204 Y92.873 E1.54477
G1 X100.086 Y93.244 E.01958
M73 Q4 S74
G1 X121.805 Y114.962 E1.54473
G1 X121.687 Y115.333 E.01958
G1 X99.969 Y93.615 E1.5447
G1 X99.851 Y93.986 E.01958
G1 X121.569 Y115.704 E1.5447
G1 X121.451 Y116.074 E.01953
G1 X99.733 Y94.357 E1.54466
G1 X99.615 Y94.727 E.01953
G1 X121.333 Y116.445 E1.5447
G1 X121.215 Y116.816 E.01958
G1 X99.497 Y95.098 E1.5447
G1 X99.379 Y95.469 E.01958
G1 X121.097 Y117.187 E1.5447
G1 X120.979 Y117.557 E.01953
G1 X99.261 Y95.84 E1.54466
G1 X99.144 Y96.211 E.01956
G1 X120.86 Y117.928 E1.54459
G1 X120.742 Y118.299 E.01958
G1 X99.026 Y96.582 E1.54459
G1 X98.908 Y96.953 E.01958
G1 X120.624 Y118.67 E1.54459
G1 X120.506 Y119.04 E.01953
G1 X98.79 Y97.324 E1.54455
G1 X98.672 Y97.695 E.01958
G1 X120.388 Y119.411 E1.54455
G1 X120.27 Y119.782 E.01958
G1 X98.554 Y98.066 E1.54455
G1 X98.436 Y98.437 E.01958
G1 X120.152 Y120.152 E1.54452
G1 X120.034 Y120.523 E.01958
G1 X98.319 Y98.808 E1.54448
G1 X98.201 Y99.179 E.01958
G1 X119.646 Y120.624 E1.52528
G1 X118.93 Y120.396 E.03779
G1 X98.083 Y99.55 E1.48271
G1 X97.965 Y99.92 E.01953
G1 X118.213 Y120.169 E1.44018
G1 X117.497 Y119.941 E.03779
G1 X97.847 Y100.291 E1.39761
G1 X97.729 Y100.662 E.01958
G1 X116.78 Y119.713 E1.35501
G1 X116.064 Y119.486 E.03778
G1 X97.611 Y101.033 E1.31247
G1 X97.494 Y101.404 E.01956
G1 X115.348 Y119.258 E1.26987
G1 X114.631 Y119.031 E.03782
G1 X97.376 Y101.775 E1.2273
G1 X97.258 Y102.146 E.01958
G1 X113.915 Y118.803 E1.18473
G1 X113.198 Y118.575 E.03784
G1 X97.14 Y102.517 E1.14213
G1 X97.022 Y102.888 E.01958
G1 X112.482 Y118.348 E1.0996
G1 X111.765 Y118.12 E.03784
G1 X96.904 Y103.259 E1.05699
G1 X96.786 Y103.63 E.01958
